dist/img/clients-logo/01.svg

<svg width="140" height="40" viewBox="0 0 140 40" fill="none" xmlns="http://www.w3.org/2000/svg">
<path d="M34.358 7.65203C35.2691 8.86152 36.0404 10.1755 36.6563 11.5677L19.1849 24.7916L11.8831 20.0919V14.4379L19.1849 19.1376L34.358 7.65203Z" fill="white"/>
<path d="M4.43111 19.6928C4.43111 19.4391 4.43713 19.1871 4.44918 18.9365L0.0240998 18.7139C0.00903823 19.0386 5.34751e-06 19.3665 5.34751e-06 19.6974C-0.0018774 22.2829 0.493417 24.8432 1.45749 27.2316C2.42155 29.6201 3.83541 31.7896 5.61796 33.6156L8.75678 30.3943C7.38464 28.9912 6.29611 27.3233 5.55377 25.4868C4.81142 23.6503 4.42989 21.6812 4.43111 19.6928Z" fill="white"/>
<path d="M19.1809 4.54854C19.4278 4.54854 19.6733 4.55782 19.9173 4.57019L20.1387 0.0251206C19.8215 0.00965597 19.5021 0.00192458 19.1809 0.00192458C16.6616 -0.00122984 14.1666 0.506588 11.8391 1.49622C9.51158 2.48585 7.39738 3.9378 5.61789 5.76871L8.75671 8.99154C10.1234 7.58221 11.7479 6.46415 13.5368 5.70166C15.3258 4.93918 17.2438 4.54728 19.1809 4.54854Z" fill="white"/>
<path d="M19.1809 34.8374C18.9339 34.8374 18.6883 34.8374 18.4429 34.8173L18.2215 39.3608C18.5398 39.3773 18.8596 39.3856 19.1809 39.3856C21.6991 39.3883 24.1928 38.8801 26.5191 37.8902C28.8454 36.9003 30.9582 35.4482 32.7364 33.6173L29.6035 30.396C28.2366 31.8046 26.6123 32.922 24.8237 33.6842C23.0351 34.4464 21.1174 34.8384 19.1809 34.8374Z" fill="white"/>
<path d="M27.495 7.1911L31.2242 4.3688C27.8157 1.53483 23.5609 -0.00786677 19.1749 3.01676e-05V4.54819C22.1449 4.54441 25.0459 5.46597 27.495 7.1911Z" fill="white"/>
<path d="M38.3604 19.6928C38.3628 18.5096 38.262 17.3285 38.0591 16.1638L33.9308 19.2876C33.9308 19.4222 33.9308 19.5568 33.9308 19.6928C33.9319 21.8088 33.4999 23.9015 32.6629 25.835C31.8258 27.7686 30.6024 29.5 29.0719 30.917L32.0496 34.2962C34.0393 32.4518 35.6293 30.1988 36.7165 27.6831C37.8037 25.1674 38.3637 22.4451 38.3604 19.6928Z" fill="white"/>
<path d="M19.1809 34.8374C17.1199 34.8381 15.0818 34.3944 13.1983 33.535C11.315 32.6757 9.62839 31.4196 8.24777 29.8485L4.95834 32.9043C6.75437 34.9476 8.94861 36.5804 11.3988 37.697C13.8489 38.8134 16.5002 39.3889 19.1809 39.3856V34.8374Z" fill="white"/>
<path d="M9.28997 8.46847L6.31381 5.08944C4.32353 6.93341 2.73297 9.18632 1.64526 11.7021C0.557571 14.2178 -0.00296543 16.9402 1.17979e-05 19.6927L4.43111 19.6928C4.43019 17.5769 4.86227 15.4842 5.69928 13.5506C6.5363 11.6171 7.75962 9.88562 9.28997 8.46847Z" fill="white"/>
<path d="M110.686 11.2619L116.174 7.15756H97.8071V31.8213H116.174V27.717H103.048V21.3993H114.245V17.2949H103.048V11.2619H110.686Z" fill="white"/>
<path d="M85.4486 16.7657H79.0719V11.2603H89.2488L94.7335 7.14345H73.8342V31.8072H84.7741C90.9075 31.8072 94.4276 28.9853 94.4276 24.0638C94.4276 19.3555 91.2393 16.7657 85.4486 16.7657ZM84.5382 27.7016H79.0719V20.8676H84.5382C87.8555 20.8676 89.411 22.0128 89.411 24.2846C89.411 26.5563 87.756 27.7016 84.5382 27.7016Z" fill="white"/>
<path d="M129.675 7.15403H119.678V31.8177H124.918V24.8309H129.675C136.054 24.8309 140 21.4236 140 15.9793C140 10.5351 136.054 7.15403 129.675 7.15403ZM129.565 20.7234H124.918V11.2615H129.565C132.92 11.2615 134.772 12.9427 134.772 15.9944C134.772 19.046 132.92 20.7234 129.565 20.7234Z" fill="white"/>
<path d="M65.9702 25.9972C64.6165 26.7414 63.0998 27.1267 61.5606 27.1176C56.9534 27.1176 53.6112 23.7786 53.6112 19.1809C53.6112 14.5831 56.9534 11.237 61.5606 11.237C63.222 11.2083 64.849 11.7198 66.2038 12.6966L69.8694 9.95616L69.6215 9.77736C67.4832 7.86893 64.6261 6.85815 61.3558 6.85815C57.8087 6.85815 54.5923 8.06962 52.2959 10.2736C51.1347 11.4084 50.2164 12.774 49.5981 14.2852C48.9798 15.7964 48.6747 17.4206 48.7022 19.0568C48.6776 20.7096 48.9812 22.3504 49.595 23.8815C50.2087 25.4125 51.1199 26.8022 52.2744 27.9678C54.5815 30.2593 57.7907 31.5219 61.3127 31.5219C64.9927 31.5219 68.2091 30.2191 70.387 27.8474L67.1058 25.366L65.9702 25.9972Z" fill="white"/>
</svg>

<svg width="140" height="40" viewBox="0 0 140 40" fill="none" xmlns="http://www.w3.org/2000/svg"><path d="M34.358 7.652a19.864 19.864 0 012.298 3.916L19.185 24.792l-7.302-4.7v-5.654l7.302 4.7L34.358 7.652zM4.431 19.693c0-.254.006-.506.018-.757l-4.425-.222a20.097 20.097 0 001.433 8.518 19.68 19.68 0 004.161 6.384l3.139-3.222a15.121 15.121 0 01-3.203-4.907 15.441 15.441 0 01-1.123-5.794zM19.18 4.549c.248 0 .493.009.737.021L20.14.025a18.696 18.696 0 00-8.3 1.471A19.103 19.103 0 005.618 5.77l3.139 3.223a14.68 14.68 0 014.78-3.29 14.365 14.365 0 015.644-1.153zm0 30.288c-.246 0-.492 0-.737-.02l-.222 4.544a18.683 18.683 0 008.298-1.47 19.092 19.092 0 006.217-4.274l-3.132-3.221a14.686 14.686 0 01-4.78 3.288 14.37 14.37 0 01-5.643 1.153z" fill="#fff"/><path d="M27.495 7.191l3.73-2.822C27.814 1.535 23.56-.008 19.174 0v4.548a14.41 14.41 0 018.32 2.643zM38.36 19.693a20.325 20.325 0 00-.3-3.53l-4.13 3.125v.405a15.448 15.448 0 01-1.267 6.142 15.094 15.094 0 01-3.591 5.082l2.978 3.38a19.632 19.632 0 004.667-6.614 20.09 20.09 0 001.643-7.99zM19.18 34.837a14.398 14.398 0 01-5.982-1.302 14.741 14.741 0 01-4.95-3.686l-3.29 3.055a19.158 19.158 0 006.44 4.793 18.705 18.705 0 007.783 1.689v-4.549zM9.29 8.468L6.314 5.09a19.628 19.628 0 00-4.669 6.613A20.088 20.088 0 000 19.692h4.431c0-2.115.431-4.208 1.268-6.141A15.097 15.097 0 019.29 8.468zm101.396 2.794l5.488-4.104H97.807V31.82h18.367v-4.104h-13.126v-6.318h11.197v-4.104h-11.197v-6.033h7.638zm-25.237 5.504h-6.377V11.26h10.177l5.485-4.117h-20.9v24.664h10.94c6.133 0 9.654-2.822 9.654-7.743 0-4.709-3.189-7.298-8.98-7.298zm-.91 10.936h-5.467v-6.834h5.466c3.318 0 4.873 1.145 4.873 3.417 0 2.271-1.655 3.417-4.873 3.417zm45.136-20.548h-9.997v24.664h5.24V24.83h4.757c6.379 0 10.325-3.407 10.325-8.852 0-5.444-3.946-8.825-10.325-8.825zm-.11 13.57h-4.647V11.26h4.647c3.355 0 5.207 1.682 5.207 4.733 0 3.052-1.852 4.73-5.207 4.73zM65.97 25.997a9.04 9.04 0 01-4.41 1.12c-4.607 0-7.949-3.338-7.949-7.936s3.342-7.944 7.95-7.944a7.71 7.71 0 014.643 1.46l3.665-2.74-.248-.18c-2.138-1.908-4.995-2.919-8.265-2.919-3.547 0-6.764 1.212-9.06 3.416a11.918 11.918 0 00-2.698 4.011 12.068 12.068 0 00-.896 4.772 12.47 12.47 0 00.893 4.825 12.318 12.318 0 002.68 4.086c2.306 2.291 5.516 3.554 9.038 3.554 3.68 0 6.896-1.303 9.074-3.675l-3.281-2.481-1.136.631z" fill="#fff"/></svg>
